X:26
T:Blackbird and the Thrush, The
R:air
Z:id:hn-air-26
M:3/4
L:1/8
Q:1/4=120
K:Dm
A2 A2 Bc | d2 d2 d/e/f | e2 cABc | d4 f>d |
c2 BA GF | G2 AB AG | F2 D2 DF | D4 ||
DE | F2 G2 AB | A/G/F D2 d/e/f | e2 cABc | d4 f>d |
c2 BA GF | G2 AB AG | F2 D2 DF | D6 ||

